app/images/icons/favorite.svg

<svg width="21" height="18" viewBox="0 0 21 18" fill="none" xmlns="http://www.w3.org/2000/svg">
<path d="M19.9686 5.77107C19.6912 3.00626 17.5306 1.00033 14.8266 1.00033C13.0251 1.00033 11.3757 1.87836 10.4475 3.28559C9.5278 1.86016 7.94595 1 6.17336 1C3.4697 1 1.30868 3.00593 1.0317 5.77074C1.00978 5.89286 0.919889 6.53558 1.19321 7.58372C1.58712 9.09552 2.49699 10.4706 3.82378 11.5595L10.4431 17.0001L17.1761 11.5598C18.5029 10.4706 19.4128 9.09586 19.8067 7.58372C20.08 6.53591 19.9902 5.89319 19.9686 5.77107ZM19.0953 7.43214C18.7357 8.81289 17.9022 10.0709 16.6872 11.0677L10.4475 16.1098L4.31489 11.069C3.09772 10.0702 2.26459 8.81256 1.90466 7.43181C1.64595 6.43993 1.75229 5.87962 1.75265 5.87598L1.75813 5.84255C1.99565 3.42028 3.85229 1.66191 6.17336 1.66191C7.88602 1.66191 9.39369 2.61507 10.1092 4.14905L10.4457 4.87153L10.7822 4.14905C11.4864 2.63857 13.0737 1.66224 14.8269 1.66224C17.1476 1.66224 19.0047 3.42062 19.2469 5.87433C19.2476 5.87962 19.354 6.44026 19.0953 7.43214Z" fill="#1B1A17" stroke="#1B1A17" stroke-width="0.75"/>
</svg>

<svg width="21" height="18" fill="none" xmlns="http://www.w3.org/2000/svg"><path d="M19.969 5.771c-.278-2.765-2.438-4.77-5.142-4.77-1.802 0-3.451.877-4.38 2.285C9.527 1.86 7.947 1 6.173 1 3.47 1 1.31 3.006 1.032 5.77c-.022.123-.112.766.161 1.814.394 1.512 1.304 2.887 2.63 3.976l6.62 5.44 6.733-5.44c1.327-1.09 2.237-2.464 2.63-3.976.274-1.048.184-1.69.163-1.813zm-.874 1.661c-.36 1.38-1.193 2.639-2.408 3.636l-6.24 5.042-6.132-5.041c-1.217-.999-2.05-2.256-2.41-3.637-.259-.992-.153-1.552-.152-1.556l.005-.033c.238-2.423 2.094-4.181 4.415-4.181 1.713 0 3.22.953 3.936 2.487l.337.723.336-.723c.704-1.51 2.292-2.487 4.045-2.487 2.32 0 4.178 1.759 4.42 4.212 0 .006.107.566-.152 1.558z" fill="#1B1A17" stroke="#1B1A17" stroke-width=".75"/></svg>
